src/assets/svg/1-header/1-planet.svg

<svg width="17" height="17" viewBox="0 0 17 17" fill="none" xmlns="http://www.w3.org/2000/svg">
<path d="M8.50008 15.5833C7.52022 15.5833 6.59939 15.3974 5.73758 15.0255C4.87578 14.6536 4.12612 14.1489 3.48862 13.5114C2.85112 12.8739 2.34644 12.1243 1.97456 11.2625C1.60269 10.4007 1.41675 9.47982 1.41675 8.49996C1.41675 7.5201 1.60269 6.59927 1.97456 5.73746C2.34644 4.87565 2.85112 4.126 3.48862 3.4885C4.12612 2.851 4.87578 2.34631 5.73758 1.97444C6.59939 1.60256 7.52022 1.41663 8.50008 1.41663C9.47994 1.41663 10.4008 1.60256 11.2626 1.97444C12.1244 2.34631 12.874 2.851 13.5115 3.4885C14.149 4.126 14.6537 4.87565 15.0256 5.73746C15.3975 6.59927 15.5834 7.5201 15.5834 8.49996C15.5834 9.47982 15.3975 10.4007 15.0256 11.2625C14.6537 12.1243 14.149 12.8739 13.5115 13.5114C12.874 14.1489 12.1244 14.6536 11.2626 15.0255C10.4008 15.3974 9.47994 15.5833 8.50008 15.5833ZM7.73862 14.5031V13.051C7.32543 13.051 6.97716 12.8975 6.69383 12.5906C6.4105 12.2836 6.26883 11.9236 6.26883 11.5104V10.7312L2.63862 7.101C2.5796 7.33711 2.53828 7.57027 2.51466 7.80048C2.49105 8.03069 2.47925 8.26385 2.47925 8.49996C2.47925 10.0347 2.97803 11.3746 3.9756 12.5198C4.97317 13.6649 6.22751 14.326 7.73862 14.5031ZM12.9449 12.5906C13.2046 12.3073 13.4319 12.0062 13.6266 11.6875C13.8214 11.3687 13.9867 11.0352 14.1225 10.6869C14.2582 10.3387 14.3586 9.98156 14.4235 9.61558C14.4884 9.24961 14.5209 8.87774 14.5209 8.49996C14.5209 7.24857 14.1786 6.11229 13.4938 5.0911C12.8091 4.06992 11.8942 3.32322 10.749 2.851V3.16975C10.749 3.58295 10.6074 3.94301 10.324 4.24996C10.0407 4.5569 9.69244 4.71038 9.27925 4.71038H7.73862V6.251C7.73862 6.45169 7.65894 6.61697 7.49956 6.74683C7.34019 6.8767 7.16015 6.94163 6.95946 6.94163H5.48966V8.49996H10.0584C10.2591 8.49996 10.4244 8.57669 10.5542 8.73017C10.6841 8.88364 10.749 9.06072 10.749 9.26142V11.5104H11.5105C11.8529 11.5104 12.1539 11.6107 12.4136 11.8114C12.6733 12.0121 12.8504 12.2718 12.9449 12.5906Z" fill="#E9E8E8" fill-opacity="0.8"/>
</svg>

<svg xmlns="http://www.w3.org/2000/svg" width="17" height="17" fill="none"><path fill="#E9E8E8" fill-opacity=".8" d="M8.5 15.583c-.98 0-1.9-.186-2.762-.558a7.154 7.154 0 0 1-2.25-1.514 7.153 7.153 0 0 1-1.513-2.248A6.898 6.898 0 0 1 1.417 8.5c0-.98.186-1.9.558-2.763A7.153 7.153 0 0 1 3.489 3.49a7.153 7.153 0 0 1 2.249-1.515A6.897 6.897 0 0 1 8.5 1.417c.98 0 1.9.186 2.763.557A7.153 7.153 0 0 1 13.51 3.49a7.154 7.154 0 0 1 1.515 2.248c.372.862.557 1.783.557 2.763s-.185 1.9-.557 2.762a7.153 7.153 0 0 1-1.514 2.25 7.153 7.153 0 0 1-2.25 1.513 6.897 6.897 0 0 1-2.762.558Zm-.761-1.08v-1.452c-.414 0-.762-.153-1.045-.46a1.541 1.541 0 0 1-.425-1.08v-.78l-3.63-3.63c-.06.236-.1.47-.124.7-.024.23-.036.463-.036.699 0 1.535.499 2.875 1.497 4.02.997 1.145 2.252 1.806 3.763 1.983Zm5.206-1.912c.26-.284.487-.585.682-.903.194-.32.36-.653.495-1.001a5.67 5.67 0 0 0 .302-1.071c.064-.366.097-.738.097-1.116a5.986 5.986 0 0 0-1.027-3.409 5.974 5.974 0 0 0-2.745-2.24v.319c0 .413-.142.773-.425 1.08-.283.307-.632.46-1.045.46H7.74v1.541c0 .2-.08.366-.24.496a.832.832 0 0 1-.54.195H5.49V8.5h4.57c.2 0 .365.077.495.23.13.154.195.33.195.531v2.25h.761c.343 0 .644.1.904.3.26.201.436.46.53.78Z"/></svg>
